!!!OTL: The Mulberry Bush
!!!COM: unknown
!!!ODT: unknown
!!!YOR: The Folksong Fake Book
!!!YOY: 2000
!!!AST: Children's song
!!!YEC: Brian Luke, 2001
**kern	**harm
*k[b-]	*k[b-]
*M6/8	*M6/8
*F:	*F:
*>A	*>A
=1	=1
8f	I
8f	.
8f	.
4f	.
8a	.
=2	=2
8cc	.
8cc	.
8a	.
4f	.
8f	.
=3	=3
8g	V
8g	.
8g	.
4g	.
8a	.
=4	=4
8g	.
8g	.
8e	.
4.c	.
=5	=5
8f	I
8f	.
8f	.
4f	.
8a	.
=6	=6
8cc	.
8cc	.
8a	.
4f	.
8f	.
=7	=7
4g	V
8g	.
4c	.
8c	.
=8	=8
4.f	I;
4.f	.
*-	*-
